X:1
T:Anglais
T:efter Alfred Petersson, Nttraby, Blekinge (SvL, Band 18, nr 283)
O:Nttraby, Blekinge
S:Svenska Ltar
N:Svenska Ltar, Band 18 nr 283
R:Anglais
C:Alfred Petersson
M:4/4
L:1/8
Q:1/4=160
Z:Konverterad till abc-format av  Olle Paulsson 05-01-03
K:Bb
B>dc>e d>fd>B|c>eA>c B>d f2|B>dc>e d>fd>B|c>eA>c B2 z2:|
|:d2 (ba) (ag) g2|^f>ga>f g>ab>g|d2 (ba) (ag) g2|^f>ga>f g2 z2:|
